assets/svg/illustrations/farm-land.svg

<?xml version="1.0" encoding="utf-8"?>
<!-- Generator: Adobe Illustrator 23.0.1, SVG Export Plug-In . SVG Version: 6.00 Build 0)  -->
<svg xmlns="http://www.w3.org/2000/svg" xmlns:xlink="http://www.w3.org/1999/xlink" x="0px" y="0px"
	 viewBox="0 0 330 285" style="enable-background:new 0 0 330 285;" xml:space="preserve">
<style type="text/css">
	.farm-land-0{fill:#E7EAF3;}
  .farm-land-1{fill:#DE4437;}
  .farm-land-2{fill:#FFFFFF;}
  .farm-land-3{fill:#377DFF;}
  .farm-land-4{fill:#F8FAFD;}
  .farm-land-5{fill:#8C98A4;}
  .farm-land-6{fill:#BDC5D1;}
  .farm-land-7{fill:#196EFF;}
  .farm-land-8{fill:#00C9A7;}
  .farm-land-9{fill:none;}
  .farm-land-10{fill:#7C4635;}
  .farm-land-11{fill:#795548;}
</style>
<g>
	<rect x="2.8" y="88.8" class="farm-land-0 fill-gray-300" width="181.2" height="157.9"/>
</g>
<g opacity=".7">
  <linearGradient id="farmLandID1" gradientUnits="userSpaceOnUse" x1="50.35" y1="200.8" x2="50.35" y2="243.9" gradientTransform="matrix(1 0 0 -1 0 286)">
		<stop  offset="0" style="stop-color:#808080;stop-opacity:0.25"/>
		<stop  offset="0.54" style="stop-color:#808080;stop-opacity:0.12"/>
		<stop  offset="1" style="stop-color:#808080;stop-opacity:0.1"/>
	</linearGradient>
	<rect x="39.4" y="42.1" fill="url(#farmLandID1)" width="21.9" height="43.1"/>
</g>
<rect x="39.9" y="42.7" class="farm-land-1 fill-danger" width="20.6" height="42.5"/>
<g>
	<polygon class="farm-land-0 fill-gray-300" points="159.9,244.9 27.6,244.9 27.6,83.1 94.2,81.6 159.9,83.1 	"/>
</g>
<polygon class="farm-land-2 fill-white" points="158.4,244.9 29.7,244.9 29.7,83.1 94,37.4 158.4,83.1 "/>
<rect x="77.7" y="190.6" class="farm-land-3 fill-primary" width="32.4" height="54.3"/>
<rect x="64.2" y="107.4" class="farm-land-4 fill-gray-200" opacity=".5" width="59.6" height="37.1"/>
<rect x="60.7" y="141.3" class="farm-land-5 fill-gray-600" width="66.8" height="6.5"/>
<g>
	<rect x="64.2" y="107.4" class="farm-land-6 fill-gray-400" width="59.6" height="14.8"/>
</g>
<g opacity=".7">
	<polygon class="farm-land-7 fill-primary-darker" points="167,96.9 94.2,40.5 23.7,96.9 18.2,89.9 94.1,29.3 172.4,89.8 	"/>
</g>
<polygon class="farm-land-7 fill-primary-darker" points="167,97.4 94.2,41.2 23.7,97.4 18.2,90.5 94.1,29.8 172.4,90.5 "/>
<circle class="farm-land-2 fill-white" cx="105.5" cy="217.8" r="2.4"/>
<g id="ff8ee4b4-5abc-4927-bead-5d69132ee8f9" opacity=".3">
	<path class="farm-land-6 fill-gray-400" d="M256.9,207c-2.9-3-4.5-7.1-4.5-11.3c0-5.9,3.1-11.3,8.2-14.3c-1.1-1.6-1.7-3.5-1.7-5.5c0-5.5,4.6-10,10.3-10
		c4.5,0,8.5,2.9,9.9,7.2c2.9-4.5,7.8-7.2,13.2-7.2c8.5,0,15.4,6.7,15.4,14.9c0,1.8-0.3,3.5-0.9,5.1c0.3,0,0.6,0,0.9,0
		c6.8,0,12.4,5.3,12.4,11.9c0,0.4,0,0.8-0.1,1.2c5.5,2.3,9.3,7.5,9.3,13.6c0,8.2-6.9,14.8-15.3,14.8c-0.9,0-1.8-0.1-2.7-0.2
		c0,0.5,0.1,1,0.1,1.5c0,9.2-7.7,16.6-17.2,16.6c-3.5,0-6.9-1-9.8-3c-2.3,1.9-5.3,3-8.3,3c-7.1,0-12.9-5.6-12.9-12.4
		c0-0.3,0-0.6,0-0.9l0,0c-7.6,0-13.8-6-13.8-13.3C249.5,213.8,252.4,209.2,256.9,207z"/>
</g>
<path id="c200c6c4-addf-434c-9e0f-5ce7230e9a19" class="farm-land-8 fill-success" d="M258.3,206.9c-2.7-2.9-4.3-6.8-4.3-10.8c0-5.6,3-10.8,7.8-13.7
	c-1.1-1.5-1.6-3.4-1.6-5.3c0-5.3,4.4-9.6,9.9-9.6c4.3,0,8.2,2.7,9.5,6.9c2.7-4.3,7.5-6.9,12.6-6.9c8.1,0,14.7,6.4,14.7,14.2
	c0,1.7-0.3,3.3-0.9,4.9c0.3,0,0.6,0,0.9,0c6.5,0,11.8,5.1,11.8,11.4c0,0.4,0,0.8-0.1,1.2c5.2,2.2,8.9,7.2,8.9,13
	c0,7.8-6.6,14.2-14.7,14.2c-0.9,0-1.7-0.1-2.6-0.2c0,0.5,0.1,0.9,0.1,1.4c0,8.8-7.4,15.9-16.5,15.9c-3.3,0-6.6-1-9.4-2.8
	c-2.2,1.8-5,2.8-7.9,2.8c-6.8,0-12.3-5.3-12.3-11.9c0-0.3,0-0.6,0-0.8l0,0c-7.3,0-13.2-5.7-13.2-12.7
	C251.2,213.4,254,209,258.3,206.9z"/>
<line class="farm-land-9 fill-none" x1="286.3" y1="190.3" x2="286.3" y2="278.8"/>
<rect x="284.9" y="190.3" class="farm-land-10" width="2.7" height="88.5"/>
<line class="farm-land-9 fill-none" x1="286.5" y1="216.8" x2="270.7" y2="200.6"/>
<rect x="277.2" y="197.4" transform="matrix(0.7141 -0.7 0.7 0.7141 -66.4553 254.6776)" class="farm-land-11" width="2.7" height="22.6"/>
<line class="farm-land-9 fill-none" x1="286.5" y1="230.6" x2="302.9" y2="219.1"/>
<rect x="284.7" y="223.5" transform="matrix(0.8186 -0.5744 0.5744 0.8186 -75.7188 210.0458)" class="farm-land-10" width="20" height="2.7"/>
<g copacity=".3">
	<path class="farm-land-6 fill-gray-400" d="M288.8,208.5c6.3-7.3,5.6-18.3-1.7-24.6c-0.6-0.5-1.3-1-1.9-1.5c1.1-1.7,1.7-3.6,1.7-5.6
		c0-5.6-4.5-10.2-10-10.2c-4.5,0-8.4,3-9.6,7.3c-2.6-4.5-7.5-7.3-12.7-7.3c-8.2,0-14.9,6.8-14.9,15.2c0,1.8,0.3,3.6,0.9,5.2
		c-0.3,0-0.6,0-0.9,0c-6.6,0-11.9,5.5-11.9,12.2c0,0.4,0,0.8,0.1,1.2c-5.5,2.5-9,7.9-9,13.9c0,8.4,6.6,15.2,14.8,15.2
		c0.9,0,1.7-0.1,2.6-0.2c0,0.5-0.1,1-0.1,1.5c0,9.4,7.4,17,16.6,17c3.4,0,6.7-1.1,9.5-3c2.2,2,5.1,3,8,3c6.9,0,12.4-5.7,12.4-12.7
		c0-0.3,0-0.6,0-0.9l0,0c7.3,0,13.3-6.1,13.3-13.6C296,215.6,293.2,210.9,288.8,208.5z"/>
</g>
<path id="c2060184-c570-49c2-acda-2f80a9472e25" class="farm-land-8 fill-success" d="M286.8,208.4c5.9-6.8,5.3-17.2-1.6-23.1c-0.6-0.5-1.2-1-1.8-1.4
	c1-1.6,1.6-3.4,1.5-5.3c0-5.3-4.2-9.6-9.4-9.6c-4.2,0-7.9,2.8-9,6.9c-2.5-4.3-7-6.9-11.9-6.9c-7.7,0-14,6.4-14,14.3
	c0,1.7,0.3,3.3,0.9,4.9c-0.3,0-0.6,0-0.9,0c-6.2,0-11.2,5.1-11.2,11.5c0,0.4,0,0.8,0.1,1.2c-5.1,2.3-8.4,7.4-8.4,13.1
	c0,7.9,6.2,14.2,13.9,14.2c0.8,0,1.6-0.1,2.4-0.2c0,0.5-0.1,1-0.1,1.4c0,8.8,7,16,15.6,16c3.2,0,6.3-1,8.9-2.8
	c2.1,1.8,4.8,2.8,7.5,2.8c6.4,0,11.7-5.3,11.7-11.9c0-0.3,0-0.6,0-0.8l0,0c6.9,0,12.5-5.7,12.5-12.8
	C293.7,215,291,210.7,286.8,208.4z"/>
<rect x="259.6" y="191.5" class="farm-land-10" width="1.8" height="88.9"/>
<rect x="256.5" y="209.3" transform="matrix(0.6794 -0.7337 0.7337 0.6794 -68.4771 263.6789)" class="farm-land-10" width="22" height="1.8"/>
<rect x="251.4" y="216.8" transform="matrix(0.5962 -0.8028 0.8028 0.5962 -79.8945 294.0052)" class="farm-land-11" width="1.8" height="19.3"/>
<g id="db20f295-6229-40c0-b196-6bb997b23afd" opacity=".3">
	<path class="farm-land-6 fill-gray-400" d="M218.9,234.9c-2-2.1-3-4.8-3-7.7c0-4,2.1-7.7,5.6-9.7c-0.8-1.1-1.2-2.4-1.2-3.7c0-3.8,3.2-6.8,7-6.8
		c3.1,0,5.8,2,6.8,4.9c2-3.1,5.3-4.9,9-4.9c5.8,0,10.5,4.5,10.5,10.1c0,1.2-0.2,2.4-0.6,3.5c0.2,0,0.4,0,0.6,0
		c4.7,0,8.4,3.7,8.4,8.1c0,0.3,0,0.5,0,0.8c3.8,1.5,6.3,5.2,6.3,9.3c0,5.6-4.7,10.1-10.5,10.1c-0.6,0-1.2-0.1-1.8-0.2
		c0,0.3,0.1,0.7,0.1,1c0,6.3-5.3,11.3-11.7,11.3c-2.4,0-4.7-0.7-6.7-2c-1.6,1.3-3.6,2-5.7,2c-4.8,0-8.8-3.8-8.8-8.5
		c0-0.2,0-0.4,0-0.6l0,0c-5.2,0-9.4-4.1-9.4-9.1C213.8,239.5,215.8,236.4,218.9,234.9z"/>
</g>
<path class="farm-land-8 fill-success" d="M219.9,234.9c-1.9-2-2.9-4.6-2.9-7.3c0-3.8,2.1-7.4,5.3-9.3c-0.7-1.1-1.1-2.3-1.1-3.6c0-3.6,3-6.5,6.7-6.5
	c3,0,5.6,1.9,6.5,4.7c1.9-2.9,5.1-4.7,8.6-4.7c5.5,0,10,4.3,10,9.7c0,1.1-0.2,2.3-0.6,3.4c0.2,0,0.4,0,0.6,0c4.5,0,8.1,3.5,8.1,7.8
	c0,0.3,0,0.5,0,0.8c3.6,1.5,6,5,6.1,8.9c0,5.3-4.5,9.7-10,9.7c-0.6,0-1.2,0-1.7-0.1c0,0.3,0,0.6,0,1c0,6-5,10.9-11.2,10.9
	c-2.3,0-4.5-0.7-6.4-1.9c-1.5,1.3-3.5,1.9-5.4,1.9c-4.6,0-8.4-3.6-8.4-8.1c0-0.2,0-0.4,0-0.6l0,0c-5,0-9-3.9-9-8.7
	C215,239.3,216.9,236.3,219.9,234.9z"/>
<line class="farm-land-9 fill-none" x1="238.9" y1="223.5" x2="238.9" y2="283.8"/>
<rect x="238" y="223.5" class="farm-land-10" width="1.8" height="60.3"/>
<line id="cd90862a-73c1-467f-8a8f-23aaf7962413" class="farm-land-9 fill-none" x1="239.1" y1="241.6" x2="228.3" y2="230.6"/>
<rect x="232.8" y="228.4" transform="matrix(0.7141 -0.7 0.7 0.7141 -98.4764 231.0656)" class="farm-land-11" width="1.8" height="15.4"/>
<line id="f406e355-8aa2-4ce0-9f47-8fc27dbb63cd" class="farm-land-9 fill-none" x1="239.1" y1="251" x2="250.3" y2="243.2"/>
<rect x="237.9" y="246.2" transform="matrix(0.8186 -0.5744 0.5744 0.8186 -97.5462 185.3599)" class="farm-land-11" width="13.6" height="1.8"/>
<g id="af04bae7-87e5-447e-b22a-307a28405780" opacity=".3">
	<path class="farm-land-6 fill-gray-400" d="M249.8,236.7c4.3-4.9,3.8-12.2-1.1-16.5c-0.4-0.4-0.9-0.7-1.3-1c0.7-1.1,1.1-2.4,1.1-3.8
		c0.1-3.7-2.8-6.7-6.5-6.8c-3.1-0.1-5.8,2-6.6,4.9c-1.8-3-5-4.9-8.5-4.9c-5.5,0-10,4.6-10,10.2c0,1.2,0.2,2.4,0.6,3.5
		c-0.2,0-0.4,0-0.6,0c-4.5,0.1-8.1,3.7-8,8.2l0,0c0,0.3,0,0.6,0,0.8c-3.7,1.6-6,5.3-6,9.3c0,5.6,4.5,10.2,9.9,10.2
		c0.6,0,1.2-0.1,1.7-0.2c0,0.3,0,0.7,0,1c0,6.3,5,11.4,11.2,11.4c2.3,0,4.5-0.7,6.4-2c1.5,1.3,3.4,2,5.4,2c4.7-0.1,8.4-3.9,8.3-8.5
		l0,0c0-0.2,0-0.4,0-0.6l0,0c4.9,0,8.9-4.1,8.9-9.1C254.7,241.4,252.8,238.3,249.8,236.7z"/>
</g>
<path id="e5433075-9388-42ed-900f-702a5a1be897" class="farm-land-8 fill-success" d="M248.5,236.6c4-4.6,3.5-11.5-1-15.5c-0.4-0.3-0.8-0.7-1.2-0.9
	c0.7-1.1,1-2.3,1-3.5c0.1-3.5-2.7-6.3-6.1-6.4c-2.9-0.1-5.4,1.8-6.2,4.6c-1.7-2.9-4.7-4.6-8-4.6c-5.2,0-9.4,4.3-9.4,9.6
	c0,1.1,0.2,2.2,0.6,3.3c-0.2,0-0.4,0-0.6,0c-4.2,0-7.6,3.5-7.5,7.7c0,0.3,0,0.5,0,0.8c-3.5,1.5-5.7,5-5.6,8.8c0,5.3,4.2,9.5,9.3,9.5
	c0.5,0,1.1,0,1.6-0.1c0,0.3,0,0.6,0,1c0,5.9,4.7,10.7,10.5,10.7c2.1,0,4.2-0.7,6-1.9c1.4,1.2,3.2,1.9,5.1,1.9c4.4-0.1,7.9-3.6,7.8-8
	c0-0.2,0-0.4,0-0.6l0,0c4.7-0.1,8.4-3.9,8.4-8.6l0,0C253.1,241.1,251.3,238.1,248.5,236.6z"/>
<rect x="230.3" y="225.3" class="farm-land-10" width="1.2" height="59.7"/>
<rect x="228.1" y="237.2" transform="matrix(0.6794 -0.7337 0.7337 0.6794 -98.9905 249.0546)" class="farm-land-10" width="14.8" height="1.2"/>
<rect x="224.7" y="242.2" transform="matrix(0.5962 -0.8028 0.8028 0.5962 -108.6788 281.3205)" class="farm-land-10" width="1.2" height="13"/>
</svg>

<svg width="330" height="285" viewBox="0 0 330 285" fill="none" xmlns="http://www.w3.org/2000/svg">
<path d="M184 88.8H2.80005V246.7H184V88.8Z" fill="#E7EAF3"/>
<g opacity="0.7">
<path opacity="0.7" d="M61.3 42.1H39.4V85.2H61.3V42.1Z" fill="url(#paint0_linear)"/>
</g>
<path d="M60.5 42.7H39.9V85.2H60.5V42.7Z" fill="#DE4437"/>
<path d="M159.9 244.9H27.6V83.1L94.2 81.6L159.9 83.1V244.9Z" fill="#E7EAF3"/>
<path d="M158.4 244.9H29.7V83.1L94 37.4L158.4 83.1V244.9Z" fill="white"/>
<path d="M110.1 190.6H77.7V244.9H110.1V190.6Z" fill="#377dff"/>
<path opacity="0.5" d="M123.8 107.4H64.2V144.5H123.8V107.4Z" fill="#F8FAFD"/>
<path d="M127.5 141.3H60.7V147.8H127.5V141.3Z" fill="#8C98A4"/>
<path d="M123.8 107.4H64.2V122.2H123.8V107.4Z" fill="#BDC5D1"/>
<g opacity="0.7">
<path opacity="0.7" d="M167 96.9L94.2 40.5L23.7 96.9L18.2 89.9L94.0999 29.3L172.4 89.8L167 96.9Z" fill="#377dff"/>
</g>
<path d="M167 97.4L94.2 41.2L23.7 97.4L18.2 90.5L94.0999 29.8L172.4 90.5L167 97.4Z" fill="#377dff"/>
<path d="M105.5 220.2C106.825 220.2 107.9 219.125 107.9 217.8C107.9 216.475 106.825 215.4 105.5 215.4C104.174 215.4 103.1 216.475 103.1 217.8C103.1 219.125 104.174 220.2 105.5 220.2Z" fill="white"/>
<g opacity="0.3">
<path opacity="0.3" d="M256.9 207C254 204 252.4 199.9 252.4 195.7C252.4 189.8 255.5 184.4 260.6 181.4C259.5 179.8 258.9 177.9 258.9 175.9C258.9 170.4 263.5 165.9 269.2 165.9C273.7 165.9 277.7 168.8 279.1 173.1C282 168.6 286.9 165.9 292.3 165.9C300.8 165.9 307.7 172.6 307.7 180.8C307.7 182.6 307.4 184.3 306.8 185.9C307.1 185.9 307.4 185.9 307.7 185.9C314.5 185.9 320.1 191.2 320.1 197.8C320.1 198.2 320.1 198.6 320 199C325.5 201.3 329.3 206.5 329.3 212.6C329.3 220.8 322.4 227.4 314 227.4C313.1 227.4 312.2 227.3 311.3 227.2C311.3 227.7 311.4 228.2 311.4 228.7C311.4 237.9 303.7 245.3 294.2 245.3C290.7 245.3 287.3 244.3 284.4 242.3C282.1 244.2 279.1 245.3 276.1 245.3C269 245.3 263.2 239.7 263.2 232.9C263.2 232.6 263.2 232.3 263.2 232C255.6 232 249.4 226 249.4 218.7C249.5 213.8 252.4 209.2 256.9 207Z" fill="#BDC5D1"/>
</g>
<path d="M258.3 206.9C255.6 204 254 200.1 254 196.1C254 190.5 257 185.3 261.8 182.4C260.7 180.9 260.2 179 260.2 177.1C260.2 171.8 264.6 167.5 270.1 167.5C274.4 167.5 278.3 170.2 279.6 174.4C282.3 170.1 287.1 167.5 292.2 167.5C300.3 167.5 306.9 173.9 306.9 181.7C306.9 183.4 306.6 185 306 186.6C306.3 186.6 306.6 186.6 306.9 186.6C313.4 186.6 318.7 191.7 318.7 198C318.7 198.4 318.7 198.8 318.6 199.2C323.8 201.4 327.5 206.4 327.5 212.2C327.5 220 320.9 226.4 312.8 226.4C311.9 226.4 311.1 226.3 310.2 226.2C310.2 226.7 310.3 227.1 310.3 227.6C310.3 236.4 302.9 243.5 293.8 243.5C290.5 243.5 287.2 242.5 284.4 240.7C282.2 242.5 279.4 243.5 276.5 243.5C269.7 243.5 264.2 238.2 264.2 231.6C264.2 231.3 264.2 231 264.2 230.8C256.9 230.8 251 225.1 251 218.1C251.2 213.4 254 209 258.3 206.9Z" fill="#00C9A7"/>
<path d="M287.6 190.3H284.9V278.8H287.6V190.3Z" fill="#7C4635"/>
<path d="M271.601 199.711L269.673 201.601L285.493 217.74L287.421 215.85L271.601 199.711Z" fill="#795548"/>
<path d="M302.087 217.983L285.715 229.471L287.266 231.681L303.638 220.193L302.087 217.983Z" fill="#7C4635"/>
<path d="M288.8 208.5C295.1 201.2 294.4 190.2 287.1 183.9C286.5 183.4 285.8 182.9 285.2 182.4C286.3 180.7 286.9 178.8 286.9 176.8C286.9 171.2 282.4 166.6 276.9 166.6C272.4 166.6 268.5 169.6 267.3 173.9C264.7 169.4 259.8 166.6 254.6 166.6C246.4 166.6 239.7 173.4 239.7 181.8C239.7 183.6 240 185.4 240.6 187C240.3 187 240 187 239.7 187C233.1 187 227.8 192.5 227.8 199.2C227.8 199.6 227.8 200 227.9 200.4C222.4 202.9 218.9 208.3 218.9 214.3C218.9 222.7 225.5 229.5 233.7 229.5C234.6 229.5 235.4 229.4 236.3 229.3C236.3 229.8 236.2 230.3 236.2 230.8C236.2 240.2 243.6 247.8 252.8 247.8C256.2 247.8 259.5 246.7 262.3 244.8C264.5 246.8 267.4 247.8 270.3 247.8C277.2 247.8 282.7 242.1 282.7 235.1C282.7 234.8 282.7 234.5 282.7 234.2C290 234.2 296 228.1 296 220.6C296 215.6 293.2 210.9 288.8 208.5Z" fill="#BDC5D1"/>
<path d="M286.8 208.4C292.7 201.6 292.1 191.2 285.2 185.3C284.6 184.8 284 184.3 283.4 183.9C284.4 182.3 285 180.5 284.9 178.6C284.9 173.3 280.7 169 275.5 169C271.3 169 267.6 171.8 266.5 175.9C264 171.6 259.5 169 254.6 169C246.9 169 240.6 175.4 240.6 183.3C240.6 185 240.9 186.6 241.5 188.2C241.2 188.2 240.9 188.2 240.6 188.2C234.4 188.2 229.4 193.3 229.4 199.7C229.4 200.1 229.4 200.5 229.5 200.9C224.4 203.2 221.1 208.3 221.1 214C221.1 221.9 227.3 228.2 235 228.2C235.8 228.2 236.6 228.1 237.4 228C237.4 228.5 237.3 229 237.3 229.4C237.3 238.2 244.3 245.4 252.9 245.4C256.1 245.4 259.2 244.4 261.8 242.6C263.9 244.4 266.6 245.4 269.3 245.4C275.7 245.4 281 240.1 281 233.5C281 233.2 281 232.9 281 232.7C287.9 232.7 293.5 227 293.5 219.9C293.7 215 291 210.7 286.8 208.4Z" fill="#00C9A7"/>
<path d="M261.4 191.5H259.6V280.4H261.4V191.5Z" fill="#7C4635"/>
<path d="M274.299 201.542L259.352 217.683L260.673 218.906L275.62 202.765L274.299 201.542Z" fill="#7C4635"/>
<path d="M245.11 219.992L244.037 221.437L259.531 232.944L260.604 231.499L245.11 219.992Z" fill="#795548"/>
<g opacity="0.3">
<path opacity="0.3" d="M218.9 234.9C216.9 232.8 215.9 230.1 215.9 227.2C215.9 223.2 218 219.5 221.5 217.5C220.7 216.4 220.3 215.1 220.3 213.8C220.3 210 223.5 207 227.3 207C230.4 207 233.1 209 234.1 211.9C236.1 208.8 239.4 207 243.1 207C248.9 207 253.6 211.5 253.6 217.1C253.6 218.3 253.4 219.5 253 220.6C253.2 220.6 253.4 220.6 253.6 220.6C258.3 220.6 262 224.3 262 228.7C262 229 262 229.2 262 229.5C265.8 231 268.3 234.7 268.3 238.8C268.3 244.4 263.6 248.9 257.8 248.9C257.2 248.9 256.6 248.8 256 248.7C256 249 256.1 249.4 256.1 249.7C256.1 256 250.8 261 244.4 261C242 261 239.7 260.3 237.7 259C236.1 260.3 234.1 261 232 261C227.2 261 223.2 257.2 223.2 252.5C223.2 252.3 223.2 252.1 223.2 251.9C218 251.9 213.8 247.8 213.8 242.8C213.8 239.5 215.8 236.4 218.9 234.9Z" fill="#BDC5D1"/>
</g>
<path d="M219.9 234.9C218 232.9 217 230.3 217 227.6C217 223.8 219.1 220.2 222.3 218.3C221.6 217.2 221.2 216 221.2 214.7C221.2 211.1 224.2 208.2 227.9 208.2C230.9 208.2 233.5 210.1 234.4 212.9C236.3 210 239.5 208.2 243 208.2C248.5 208.2 253 212.5 253 217.9C253 219 252.8 220.2 252.4 221.3C252.6 221.3 252.8 221.3 253 221.3C257.5 221.3 261.1 224.8 261.1 229.1C261.1 229.4 261.1 229.6 261.1 229.9C264.7 231.4 267.1 234.9 267.2 238.8C267.2 244.1 262.7 248.5 257.2 248.5C256.6 248.5 256 248.5 255.5 248.4C255.5 248.7 255.5 249 255.5 249.4C255.5 255.4 250.5 260.3 244.3 260.3C242 260.3 239.8 259.6 237.9 258.4C236.4 259.7 234.4 260.3 232.5 260.3C227.9 260.3 224.1 256.7 224.1 252.2C224.1 252 224.1 251.8 224.1 251.6C219.1 251.6 215.1 247.7 215.1 242.9C215 239.3 216.9 236.3 219.9 234.9Z" fill="#00C9A7"/>
<path d="M239.8 223.5H238V283.8H239.8V223.5Z" fill="#7C4635"/>
<path d="M228.932 229.946L227.646 231.206L238.426 242.203L239.712 240.943L228.932 229.946Z" fill="#795548"/>
<path d="M249.749 242.438L238.616 250.249L239.65 251.723L250.783 243.911L249.749 242.438Z" fill="#795548"/>
<g opacity="0.3">
<path opacity="0.3" d="M249.8 236.7C254.1 231.8 253.6 224.5 248.7 220.2C248.3 219.8 247.8 219.5 247.4 219.2C248.1 218.1 248.5 216.8 248.5 215.4C248.6 211.7 245.7 208.7 242 208.6C238.9 208.5 236.2 210.6 235.4 213.5C233.6 210.5 230.4 208.6 226.9 208.6C221.4 208.6 216.9 213.2 216.9 218.8C216.9 220 217.1 221.2 217.5 222.3C217.3 222.3 217.1 222.3 216.9 222.3C212.4 222.4 208.8 226 208.9 230.5C208.9 230.8 208.9 231.1 208.9 231.3C205.2 232.9 202.9 236.6 202.9 240.6C202.9 246.2 207.4 250.8 212.8 250.8C213.4 250.8 214 250.7 214.5 250.6C214.5 250.9 214.5 251.3 214.5 251.6C214.5 257.9 219.5 263 225.7 263C228 263 230.2 262.3 232.1 261C233.6 262.3 235.5 263 237.5 263C242.2 262.9 245.9 259.1 245.8 254.5C245.8 254.3 245.8 254.1 245.8 253.9C250.7 253.9 254.7 249.8 254.7 244.8C254.7 241.4 252.8 238.3 249.8 236.7Z" fill="#BDC5D1"/>
</g>
<path d="M248.5 236.6C252.5 232 252 225.1 247.5 221.1C247.1 220.8 246.7 220.4 246.3 220.2C247 219.1 247.3 217.9 247.3 216.7C247.4 213.2 244.6 210.4 241.2 210.3C238.3 210.2 235.8 212.1 235 214.9C233.3 212 230.3 210.3 227 210.3C221.8 210.3 217.6 214.6 217.6 219.9C217.6 221 217.8 222.1 218.2 223.2C218 223.2 217.8 223.2 217.6 223.2C213.4 223.2 210 226.7 210.1 230.9C210.1 231.2 210.1 231.4 210.1 231.7C206.6 233.2 204.4 236.7 204.5 240.5C204.5 245.8 208.7 250 213.8 250C214.3 250 214.9 250 215.4 249.9C215.4 250.2 215.4 250.5 215.4 250.9C215.4 256.8 220.1 261.6 225.9 261.6C228 261.6 230.1 260.9 231.9 259.7C233.3 260.9 235.1 261.6 237 261.6C241.4 261.5 244.9 258 244.8 253.6C244.8 253.4 244.8 253.2 244.8 253C249.5 252.9 253.2 249.1 253.2 244.4C253.1 241.1 251.3 238.1 248.5 236.6Z" fill="#00C9A7"/>
<path d="M231.5 225.3H230.3V285H231.5V225.3Z" fill="#7C4635"/>
<path d="M240.069 231.993L230.014 242.851L230.895 243.667L240.95 232.808L240.069 231.993Z" fill="#7C4635"/>
<path d="M220.441 244.368L219.725 245.331L230.162 253.082L230.877 252.118L220.441 244.368Z" fill="#7C4635"/>
<defs>
<linearGradient id="paint0_linear" x1="50.35" y1="85.2" x2="50.35" y2="42.1" gradientUnits="userSpaceOnUse">
<stop stop-color="#808080" stop-opacity="0.25"/>
<stop offset="0.54" stop-color="#808080" stop-opacity="0.12"/>
<stop offset="1" stop-color="#808080" stop-opacity="0.1"/>
</linearGradient>
</defs>
</svg>
